X:1
T:Victimae paschali
T:arr. Pierre Cochereau
T:Source: https://sites.google.com/site/santaphilomena/
T:Source: https://sites.google.com/site/santaphilomena/
Z:Source: https://sites.google.com/site/santaphilomena/
%%score [ 1 2 3 4 ]
L:1/8
M:3/4
K:Ab
V:1 treble nm="Soprano" snm="S"
V:2 treble nm="Alto" snm="A"
V:3 treble-8 nm="Tenor" snm="T"
V:4 bass nm="Bass" snm="B"
V:1
 F4 E2 | F4 A2 | B4 A2 | G4 F2 | c4 B2 | G4 B2 | A4 G2 | F6 |: c4 e2 | f4 c2 | B4 c2 | c6 | c4 B2 | %13
w: Vic- ti-|mae Pas-|cha- li|lau- des|im- mo-|lent Chri-|sti- a-|ni.|Ag- nus|re- de-|mit o-|ves,|Chri- stus|
w: ||||||||Mors et|vi- ta|du- el-|lo|con- fli-|
 c4 B2 | A4 G2 | !breath!F4 A2 | B4 F2 | G4 F2 | E6 | G4 A2 | G6 | F6 :| z6 | z6 | z6 | z6 | z6 | %27
w: in- no-|cens Pa-|tri re-|con- ci-|li- a-|vit|pec- ca-|to-|res.||||||
w: xe- re|mi- ran-|do. Dux|vi- tae|mor- tu-|us|re- gnat|vi-|vus.||||||
 z6 | z6 | z6 | z6 | A4 c2 | B4 c2 | A4 B2 | (A4 G2) | F6 | F4 B2 | A4 B2 | c4 B2 | A4 B2 | %40
w: ||||Se- pul-|chrum Chri-|sti vi-|ven _|tis|et glo-|ri- am|vi- di|re- sur-|
w: |||||||||||||
 (A4 G2) | F6 | z4 C2 | E4 F2 | A4 B2 | (G6 | !breath!F4) E2 | A4 G2 | F4 G2 | E6 | F6 | A4 c2 | %52
w: gen _|tis.|An-|ge- li-|cos tes-|tes|_ Su-|da- ri-|um et|ves-|tes.|Sur- re-|
w: ||||||||||||
 B4 c2 | A4 B2 | (A4 G2) | F6 | F4 B2 | A4 B2 | c4 B2 | A4 B2 | (A4 G2) | F6 | c4 e2 | f4 c2 | %64
w: xit Chri-|stus spes|me _|a,|prae- ce-|det su-|os in|Ga- li-|le _|a.|Sci- mus|Chri- stum|
w: ||||||||||||
 c2 B2 c2 | !breath!c4 c2 | e4 B2 | A4 G2 | F4 E2 | A4 G2 | B4 c2 | c6 | A4 B2 | (A4 G2) | F6 | %75
w: sur- re- xis-|se a|mor- tu-|is ve-|re. Tu|no- bis|vic- tor|Rex,|mi- se-|re _|re.|
w: |||||||||||
 (([Ff]2 [Gg]2 [Ff]2)) | (E6 | F6) | E4 A2 | (G4 F2) | F6 |] %81
w: A _ _|men|_|Al- le-|lu _|ia|
w: ||||||
V:2
 C4 C2 | C4 F2 | F4 E2 | E4 C2 | E4 F2 | E4 F2 | E4 E2 | C6 |: E4 E2 | A4 G2 | F4 F2 | E6 | E4 E2 | %13
 E4 E2 | F4 E2 | D4 E2 | E4 C2 | D4 D2 | E6 | E4 E2 | (D4 E2) | C6 :| z6 | z6 | z6 | z6 | z6 | z6 | %28
 z6 | z6 | z6 | E4 A2 | A4 G2 | E4 F2 | (D4 E2) | C6 | F4 G2 | E4 A2 | G4 F2 | E4 E2 | (D4 E2) | %41
 F6 | z4 C2 | C4 C2 | C4 F2 | (E4 D2 | C4) C2 | C4 C2 | D4 D2 | C6 | C6 | E4 A2 | A4 G2 | E4 F2 | %54
 (D4 E2) | C6 | F4 G2 | E4 A2 | G4 F2 | E4 E2 | (D4 E2) | F6 | A4 E2 | A4 G2 | F2 F2 F2 | E4 E2 | %66
 E4 E2 | E4 E2 | D4 D2 | C4 E2 | F4 F2 | E6 | C4 F2 | E6 | C6 | (F2 G2 F2) | (E6 | F6) | E4 A2 | %79
 (G4 F2) | F6 |] %81
V:3
 A4 G2 | A4 c2 | d4 c2 | B4 A2 | G4 B2 | B4 d2 | c4 B2 | A6 |: c4 B2 | c4 c2 | d4 F2 | G6 | A4 G2 | %13
w: |||||||||||||
 A4 B2 | c4 B2 | A4 A2 | G4 A2 | B4 A2 | G6 | c4 c2 | B6 | A6 :| z4 C2 | E4 F2 | A4 B2 | (G6 | %26
w: |||||||||Dic|no- bis|Ma- ri-|a|
 F4) E2 | A4 G2 | F4 G2 | E6 | F6 | c4 e2 | d4 e2 | c4 d2 | (B4 c2) | A6 | d4 d2 | c4 f2 | %38
w: _ Quid|vi- di-|sti in|vi-|a?||||||||
 f2 e2 d2 | d4 c2 | (B4 c2) | F6 | z4 c2 | c4 B2 | A4 d2 | (B6 | A4) B2 | c4 G2 | A4 G2 | (G4 B2) | %50
w: ||||||||||||
 A6 | c4 e2 | d4 e2 | c4 d2 | (B4 c2) | A6 | d4 d2 | c4 f2 | (f2 e2) d2 | d4 c2 | (B4 c2) | F6 | %62
w: ||||||||||||
 e4 B2 | c4 c2 | c2 d2 d2 | c4 c2 | B4 B2 | c4 B2 | A4 G2 | A4 c2 | B4 F2 | G6 | A4 d2 | (c4 B2) | %74
w: ||||||||||||
 A6 | (F2 G2 F2) | (E6 | F6) | E4 A2 | (G4 F2) | F6 |] %81
w: |||||||
V:4
 F,4 C,2 | F,4 F,2 | B,,4 C,2 | E,4 F,2 | C,4 D,2 | E,4 B,,2 | C,4 C,2 | F,6 |: A,4 G,2 | F,4 E,2 | %10
 D,4 D,2 | C,6 | A,,4 E,2 | A,4 G,2 | F,4 C,2 | D,4 C,2 | E,4 F,2 | B,,4 B,,2 | C,6 | C,4 A,,2 | %20
 (B,,4 C,2) | F,6 :| z4 C,2 | E,4 F,2 | A,4 B,2 | (G,6 | F,4) E,2 | A,4 G,2 | F,4 G,2 | E,6 | F,6 | %31
 z6 | z6 | z6 | z6 | z6 | z6 | z6 | z6 | z6 | z6 | z6 | z4 C2 | A,4 G,2 | F,4 D,2 | (E,6 | %46
 F,4) G,2 | F,4 E,2 | D,4 B,,2 | C,6 | F,6 | z6 | z6 | z6 | z6 | z6 | z6 | z6 | z6 | z6 | z6 | z6 | %62
 A,4 G,2 | F,4 E,2 | A,2 A,2 G,2 | [C,G,]4 A,2 | (A,2 G,2) G,2 | A,4 C,2 | D,4 B,,2 | F,4 C,2 | %70
 D,4 D,2 | C,6 | F,4 B,,2 | C,6 | F,6 | (F,2 G,2 F,2) | (E,6 | F,6) | E,4 A,2 | (G,4 F,2) | F,6 |] %81

